X:37
T:High Hills of Tara, The
T:Ard Cnoic Na Teamhrach
R:march
S:Teatotallers
Z:id:hn-march-37
M:C|
L:1/8
K:Ador
e2a2 a2ga | b2ab age2 | d2g2 g2fg | a2g2 f2e2 |
e2a2 a2ga | b2ab age2 | d2ef g2de | B2A2 A4 :|
E2A2 A2 (3Bcd | e2e2 dBA2 | D2G2 G3A | B2A2 G2E2 |
E2A2 A2 (3Bcd | eged e2a2 | g2e2 eged | B2A2 A4 |
E2A2 A2 (3Bcd | e2e2 dBA2 | G3A G3A | B2A2 G2E2 |
E2A2 A2 (3Bcd | eged c3d | e2a2 eged | B2A2 A4 ||

